X:1
T:Title
%%score ( 1 2 3 ) { 4 | 5 }
L:1/8
Q:1/4=192
M:4/2
K:C
V:1 treble nm="Grand Piano, Soprano"
V:2 treble 
V:3 treble 
V:4 bass nm="Choir Pad, Costa Mesa, 11.10.11.10"
V:5 bass 
V:1
 [EG]4 [FA]2 [EG]2 [CE]6 [EG]2 | [FA]2 [Ac]2 [GB]2 [FA]2 [EG]4 [CE]4 | %2
w: By~Josiah~Booth,~1809 * * * *||
 [CE]4 [CF]2 [CG]2 [CA]6 [CA]2 | [CG]2 [CE]2 [DF]2 [CE]2 [B,D]8 | [EG]4 [FA]2 [EG]2 [CE]6 [EG]2 | %5
w: |||
 [FA]2 [Ac]2 [GB]2 [FA]2 [EG]4 [CE]4 | [Ge]4 [Ge]3 [Gd] [Gc]4 G4 | c4 z4 z8 | %8
w: |||
 [Ge]4 [Ge]3 [Gd] [Gc]4 G4 | [FA]2 [Ec]2 [Ge]3 [Fd] [Ec]8- | [Ec]4 z4 z8 |] %11
w: |||
V:2
 x16 | x16 | x16 | x16 | x16 | x16 | x16 | .^F3 A [Fd]2 [Fd]2 [Gd]8 | x16 | x16 | x16 |] %11
V:3
 x16 | x16 | x16 | x16 | x16 | x16 | x16 | z2 ^F2 z4 z8 | x16 | x16 | x16 |] %11
V:4
 G,4 G,2 G,2 G,6 C2 | C2 C2 C2 C2 C4[K:bass] G,4 | G,4 G,2 G,2 F,6 F,2 | G,2 G,2 G,2 G,2 G,8 | %4
 G,4 G,2 G,2 G,6[K:treble] C2 | C2 C2 C2 C2 C4 G,4 | C4 C3 B, C4 C4 | C2 C2 A,2 C2 C4 B,4 | %8
 C4 C3 B, C4 C4 | C2 C2 C3 B, C8- | C4 z4 z8 |] %11
V:5
 C,4 C,2 C,2 C,6 C,2 | D,2 F,2 F,2 F,2 C,4 C,4 | C,4 D,2 E,2 z8 | E,2 C,2 B,,2 C,2 z8 | %4
 C,4 C,2 C,2 C,6 C,2 | F,2 F,2 F,2 F,2 C,4 C,4 | z4 G,3 F, E,4 E,4 | E,2 E,2 D,2 E,2 G,8 | %8
 z4 G,3 F, E,4 E,4 | F,2 A,2 G,3 G,, C,8- | C,4 z4 z8 |] %11

